ix/hierarchy-square-3_bold.svg

<svg viewBox="0 0 24 24" fill="none" xmlns="http://www.w3.org/2000/svg" height="1em" width="1em">
  <path d="M16.19 2H7.81C4.17 2 2 4.17 2 7.81v8.37C2 19.83 4.17 22 7.81 22h8.37c3.64 0 5.81-2.17 5.81-5.81V7.81C22 4.17 19.83 2 16.19 2Zm.22 7.83a4.341 4.341 0 0 1-4.09 2.91h-.02l-2.06-.01h-.01c-.76 0-1.42.51-1.62 1.24.89.28 1.54 1.11 1.54 2.09 0 1.21-.99 2.2-2.2 2.2-1.21 0-2.2-.99-2.2-2.2 0-.89.54-1.66 1.3-2V9.7a2.05 2.05 0 0 1-1.3-1.9c0-1.13.92-2.05 2.05-2.05s2.05.92 2.05 2.05c0 .87-.54 1.6-1.3 1.9v2.02c.49-.31 1.07-.49 1.68-.49h.01l2.06.01c1.18.04 2.23-.72 2.65-1.82-.49-.38-.81-.96-.81-1.62 0-1.13.92-2.05 2.05-2.05s2.05.92 2.05 2.05c.01 1.06-.8 1.92-1.83 2.03Z" fill="#292D32"/>
</svg>

<svg viewBox="0 0 24 24" fill="none" xmlns="http://www.w3.org/2000/svg" height="1em" width="1em">
  <path d="M16.19 2H7.81C4.17 2 2 4.17 2 7.81V16.18C2 19.83 4.17 22 7.81 22H16.18C19.82 22 21.99 19.83 21.99 16.19V7.81C22 4.17 19.83 2 16.19 2ZM16.41 9.83C15.8 11.57 14.16 12.74 12.32 12.74C12.31 12.74 12.31 12.74 12.3 12.74L10.24 12.73C10.24 12.73 10.24 12.73 10.23 12.73C9.47 12.73 8.81 13.24 8.61 13.97C9.5 14.25 10.15 15.08 10.15 16.06C10.15 17.27 9.16 18.26 7.95 18.26C6.74 18.26 5.75 17.27 5.75 16.06C5.75 15.17 6.29 14.4 7.05 14.06V9.7C6.29 9.4 5.75 8.66 5.75 7.8C5.75 6.67 6.67 5.75 7.8 5.75C8.93 5.75 9.85 6.67 9.85 7.8C9.85 8.67 9.31 9.4 8.55 9.7V11.72C9.04 11.41 9.62 11.23 10.23 11.23H10.24L12.3 11.24C13.48 11.28 14.53 10.52 14.95 9.42C14.46 9.04 14.14 8.46 14.14 7.8C14.14 6.67 15.06 5.75 16.19 5.75C17.32 5.75 18.24 6.67 18.24 7.8C18.25 8.86 17.44 9.72 16.41 9.83Z" fill="#292D32"/>
</svg>
